source/images/5bd752cd69d9224e90c87dfa_check-sign-in-a-rounded-black-square.svg

<svg enable-background="new 0 0 512 512" viewBox="0 0 512 512" xmlns="http://www.w3.org/2000/svg"><path d="m483.8 28.2c-18.7-18.8-41.4-28.2-67.8-28.2h-320c-26.4 0-49.1 9.4-67.8 28.2-18.8 18.7-28.2 41.4-28.2 67.8v320c0 26.4 9.4 49.1 28.2 67.8 18.7 18.8 41.4 28.2 67.8 28.2h320c26.4 0 49.1-9.4 67.8-28.2 18.8-18.8 28.2-41.4 28.2-67.8v-320c0-26.4-9.4-49.1-28.2-67.8zm-50.8 157.5-204.7 204.6c-4.2 4.2-9.2 6.3-15 6.3s-10.8-2.1-15-6.3l-119.3-119.3c-4.2-4.2-6.3-9.2-6.3-15s2.1-10.8 6.3-15l34-34c4.2-4.2 9.2-6.3 15-6.3s10.8 2.1 15 6.3l70.3 70.3 155.7-155.6c4.2-4.2 9.2-6.3 15-6.3s10.8 2.1 15 6.3l34 34c4.2 4.2 6.3 9.2 6.3 15s-2.1 10.7-6.3 15z" fill="#f0181f"/></svg>

<?xml version="1.0" encoding="utf-8"?>
<!-- Generator: Adobe Illustrator 19.2.0, SVG Export Plug-In . SVG Version: 6.00 Build 0)  -->
<svg version="1.1" id="Capa_1" xmlns="http://www.w3.org/2000/svg" xmlns:xlink="http://www.w3.org/1999/xlink" x="0px" y="0px"
	 viewBox="0 0 512 512" style="enable-background:new 0 0 512 512;" xml:space="preserve">
<style type="text/css">
	.st0{fill:#F0181F;}
</style>
<g>
	<path class="st0" d="M483.8,28.2C465.1,9.4,442.4,0,416,0H96C69.6,0,46.9,9.4,28.2,28.2C9.4,46.9,0,69.6,0,96v320
		c0,26.4,9.4,49.1,28.2,67.8C46.9,502.6,69.6,512,96,512h320c26.4,0,49.1-9.4,67.8-28.2c18.8-18.8,28.2-41.4,28.2-67.8V96
		C512,69.6,502.6,46.9,483.8,28.2z M433,185.7L228.3,390.3c-4.2,4.2-9.2,6.3-15,6.3c-5.8,0-10.8-2.1-15-6.3L79,271
		c-4.2-4.2-6.3-9.2-6.3-15c0-5.8,2.1-10.8,6.3-15l34-34c4.2-4.2,9.2-6.3,15-6.3s10.8,2.1,15,6.3l70.3,70.3L369,121.7
		c4.2-4.2,9.2-6.3,15-6.3c5.8,0,10.8,2.1,15,6.3l34,34c4.2,4.2,6.3,9.2,6.3,15S437.2,181.4,433,185.7z"/>
</g>
</svg>
